icons/columns-16.svg

<svg width="16" height="16" viewBox="0 0 16 16" fill="none" xmlns="http://www.w3.org/2000/svg">
<g clip-path="url(#clip0)">
<path fill-rule="evenodd" clip-rule="evenodd" d="M1.75 0C1.28587 0 0.840752 0.184374 0.512563 0.512563C0.184374 0.840752 0 1.28587 0 1.75L0 14.25C0 15.216 0.784 16 1.75 16H5.25C5.71413 16 6.15925 15.8156 6.48744 15.4874C6.81563 15.1592 7 14.7141 7 14.25V1.75C7 1.28587 6.81563 0.840752 6.48744 0.512563C6.15925 0.184374 5.71413 0 5.25 0H1.75ZM1.5 1.75C1.5 1.6837 1.52634 1.62011 1.57322 1.57322C1.62011 1.52634 1.6837 1.5 1.75 1.5H5.25C5.3163 1.5 5.37989 1.52634 5.42678 1.57322C5.47366 1.62011 5.5 1.6837 5.5 1.75V14.25C5.5 14.3163 5.47366 14.3799 5.42678 14.4268C5.37989 14.4737 5.3163 14.5 5.25 14.5H1.75C1.6837 14.5 1.62011 14.4737 1.57322 14.4268C1.52634 14.3799 1.5 14.3163 1.5 14.25V1.75ZM10.75 0C10.2859 0 9.84075 0.184374 9.51256 0.512563C9.18437 0.840752 9 1.28587 9 1.75V14.25C9 15.216 9.784 16 10.75 16H14.25C14.7141 16 15.1592 15.8156 15.4874 15.4874C15.8156 15.1592 16 14.7141 16 14.25V1.75C16 1.28587 15.8156 0.840752 15.4874 0.512563C15.1592 0.184374 14.7141 0 14.25 0H10.75ZM10.5 1.75C10.5 1.6837 10.5263 1.62011 10.5732 1.57322C10.6201 1.52634 10.6837 1.5 10.75 1.5H14.25C14.3163 1.5 14.3799 1.52634 14.4268 1.57322C14.4737 1.62011 14.5 1.6837 14.5 1.75V14.25C14.5 14.3163 14.4737 14.3799 14.4268 14.4268C14.3799 14.4737 14.3163 14.5 14.25 14.5H10.75C10.6837 14.5 10.6201 14.4737 10.5732 14.4268C10.5263 14.3799 10.5 14.3163 10.5 14.25V1.75Z" fill="black"/>
</g>
<defs>
<clipPath id="clip0">
<rect width="16" height="16" fill="white"/>
</clipPath>
</defs>
</svg>

<svg xmlns="http://www.w3.org/2000/svg" width="16" height="16" viewBox="0 0 16 16"><path fill-rule="evenodd" d="M1.75 0A1.75 1.75 0 000 1.75v12.5C0 15.216.784 16 1.75 16h3.5A1.75 1.75 0 007 14.25V1.75A1.75 1.75 0 005.25 0h-3.5zM1.5 1.75a.25.25 0 01.25-.25h3.5a.25.25 0 01.25.25v12.5a.25.25 0 01-.25.25h-3.5a.25.25 0 01-.25-.25V1.75zM10.75 0A1.75 1.75 0 009 1.75v12.5c0 .966.784 1.75 1.75 1.75h3.5A1.75 1.75 0 0016 14.25V1.75A1.75 1.75 0 0014.25 0h-3.5zm-.25 1.75a.25.25 0 01.25-.25h3.5a.25.25 0 01.25.25v12.5a.25.25 0 01-.25.25h-3.5a.25.25 0 01-.25-.25V1.75z"/></svg>
